X:740
T:Reel 740
M:4/4
K:Cmaj
L:1/8
GF|E>C (3CCC C>E (3CB,C |D>C (3CCC G2FE|F>D (3DDD d>c (3BAB ||GB (3BAG A2GF:||2 (3ABc GF EC (3CCC |D>D (3DDD F2|DEFG A|G>E (3EDE G2ECDC|B,>G, (3DA,D A>D (3DDD |G>F (3EDC G2EG|| (3ABc BG AGAB:||2BGAG cBcA|
